src/images/icons/icon-toque.svg

<svg width="64" height="64" viewBox="0 0 64 64" fill="none" xmlns="http://www.w3.org/2000/svg">
<path fill-rule="evenodd" clip-rule="evenodd" d="M45.2408 6.1125C46.1973 5.93482 47.1185 5.81823 47.9999 5.81823C56.8224 5.81823 63.9999 12.9957 64 21.8182C64 27.8437 60.6051 33.331 55.2727 36.0554V58.0653C55.2727 61.338 52.6108 64 49.3381 64H14.6677C13.0809 64 11.5909 63.3821 10.4688 62.2585C9.34799 61.1364 8.73162 59.6448 8.73299 58.0582L8.76135 36.0767C3.40909 33.3593 0 27.8636 0 21.8182C0 12.9957 7.17749 5.81823 16.0001 5.8181C16.8814 5.8181 17.8025 5.93482 18.7592 6.11237C21.9627 2.37805 26.7051 0 32 0C37.2949 0 42.0372 2.37805 45.2408 6.1125ZM49.3379 61.0911C51.0057 61.0911 52.3636 59.733 52.3636 58.0655V52.3637H11.6495L11.6419 58.0614C11.6405 58.871 11.9558 59.6309 12.5269 60.2034C13.0993 60.7757 13.8593 61.0911 14.6675 61.0911H49.3379ZM53.2641 33.7912C53.1873 33.8224 53.1149 33.8594 53.0467 33.9034C52.8635 34.017 52.7129 34.1677 52.6007 34.3409C52.4871 34.5127 52.4103 34.7117 52.3791 34.9247C52.3663 35.0057 52.3621 35.0867 52.3634 35.169V49.4545H11.6532L11.6719 35.1888C11.6733 35.1093 11.669 35.0283 11.6577 34.9502C11.6265 34.7299 11.5455 34.5254 11.4275 34.3478C11.3167 34.1816 11.1718 34.0368 10.9957 33.9259C10.9233 33.8805 10.8465 33.8407 10.767 33.808C5.9929 31.7203 2.90904 27.0184 2.90904 21.8182C2.90904 14.5994 8.78126 8.72728 15.9999 8.72728C16.2132 8.72728 16.4355 8.74677 16.6576 8.76623L16.6576 8.76624C16.7292 8.77252 16.8008 8.77879 16.8721 8.78442C15.4005 11.3421 14.5453 14.2976 14.5453 17.4546C14.5453 18.2586 15.1959 18.9092 15.9999 18.9092C16.8039 18.9092 17.4545 18.2586 17.4545 17.4546C17.4545 9.4346 23.9801 2.90905 32 2.90905C40.0199 2.90905 46.5453 9.4346 46.5453 17.4546C46.5453 18.2586 47.1959 18.9092 47.9999 18.9092C48.8039 18.9092 49.4545 18.2586 49.4545 17.4546C49.4545 14.2976 48.5994 11.3422 47.1278 8.78442C47.199 8.7788 47.2705 8.77253 47.3421 8.76625L47.3423 8.76624C47.5643 8.74677 47.7866 8.72728 47.9999 8.72728C55.2187 8.72728 61.0908 14.5995 61.0908 21.8182C61.0908 27 58.0198 31.696 53.2641 33.7912ZM15.9999 29.0909C16.8039 29.0909 17.4545 29.7415 17.4545 30.5455C17.4545 32.6505 19.929 36.4489 21.4884 38.3494C21.9969 38.9717 21.9075 39.8878 21.2867 40.3978C21.0155 40.6193 20.6888 40.7273 20.3649 40.7273C19.9445 40.7273 19.527 40.5456 19.2386 40.1961C18.7584 39.6094 14.5453 34.365 14.5453 30.5455C14.5453 29.7415 15.1959 29.0909 15.9999 29.0909ZM46.5453 30.5455C46.5453 29.7415 47.1959 29.0909 47.9999 29.0909C48.8039 29.0909 49.4545 29.7415 49.4545 30.5455C49.4545 34.3652 45.2414 39.6094 44.7613 40.1961C44.4729 40.5456 44.0567 40.7273 43.6363 40.7273C43.3111 40.7273 42.9843 40.6193 42.7145 40.3978C42.0936 39.8879 42.0028 38.9717 42.5113 38.3509C44.0709 36.4461 46.5453 32.6434 46.5453 30.5455ZM32 29.0909C31.196 29.0909 30.5454 29.7415 30.5454 30.5455V39.2728C30.5454 40.0768 31.196 40.7273 32 40.7273C32.804 40.7273 33.4546 40.0768 33.4546 39.2728V30.5455C33.4545 29.7415 32.8039 29.0909 32 29.0909Z" fill="#EDA42D"/>
</svg>

<svg width="64" height="64" fill="none" xmlns="http://www.w3.org/2000/svg"><path fill-rule="evenodd" clip-rule="evenodd" d="M45.24 6.112c.957-.177 1.878-.294 2.76-.294 8.822 0 16 7.178 16 16a15.998 15.998 0 01-8.727 14.237v22.01A5.941 5.941 0 0149.338 64h-34.67a5.893 5.893 0 01-4.2-1.742 5.897 5.897 0 01-1.735-4.2l.028-21.981A15.994 15.994 0 010 21.818c0-8.822 7.177-16 16-16 .881 0 1.802.117 2.76.294C21.962 2.378 26.704 0 32 0s10.037 2.378 13.24 6.112zm4.098 54.98a3.03 3.03 0 003.026-3.026v-5.702H11.649l-.007 5.697c-.002.81.314 1.57.885 2.142a3.008 3.008 0 002.14.888h34.67zm3.926-27.3a1.427 1.427 0 00-.663.55 1.435 1.435 0 00-.238.827v14.286h-40.71l.019-14.266a1.457 1.457 0 00-.905-1.38 13.088 13.088 0 01-7.858-11.99c0-7.22 5.872-13.092 13.09-13.092.214 0 .437.02.659.04l.214.017a17.329 17.329 0 00-2.327 8.67 1.454 1.454 0 102.91 0C17.454 9.435 23.98 2.91 32 2.91s14.545 6.526 14.545 14.546a1.454 1.454 0 102.91 0c0-3.157-.856-6.113-2.327-8.67l.214-.019c.222-.02.445-.039.658-.039 7.219 0 13.09 5.873 13.09 13.091 0 5.182-3.07 9.878-7.826 11.973zM16 29.09c.804 0 1.454.65 1.454 1.454 0 2.105 2.475 5.904 4.034 7.804a1.457 1.457 0 01-1.123 2.378c-.42 0-.838-.181-1.126-.53-.48-.588-4.694-5.832-4.694-9.652 0-.804.65-1.454 1.455-1.454zm30.545 1.454a1.454 1.454 0 112.91 0c0 3.82-4.214 9.064-4.694 9.651a1.455 1.455 0 01-2.25-1.845c1.56-1.905 4.034-5.708 4.034-7.805zM32 29.091c-.804 0-1.455.65-1.455 1.454v8.728a1.454 1.454 0 102.91 0v-8.728c0-.804-.651-1.454-1.455-1.454z" fill="#EDA42D"/></svg>
